img/help-center-market.svg

<?xml version="1.0" encoding="UTF-8"?>
<svg width="100px" height="100px" viewBox="0 0 100 100" version="1.1" xmlns="http://www.w3.org/2000/svg" xmlns:xlink="http://www.w3.org/1999/xlink">
    <!-- Generator: Sketch 48.2 (47327) - http://www.bohemiancoding.com/sketch -->
    <title>help-center-market</title>
    <desc>Created with Sketch.</desc>
    <defs>
        <path d="M50,100 C22.3857625,100 0,77.6142375 0,50 C0,22.3857625 22.3857625,0 50,0 C77.6142375,0 100,22.3857625 100,50 C100,77.6142375 77.6142375,100 50,100 Z" id="path-1"></path>
    </defs>
    <g id="Page-1" stroke="none" stroke-width="1" fill="none" fill-rule="evenodd">
        <g id="help-center-market">
            <g id="Combined-Shape" opacity="0.197067482">
                <use fill="#000000" fill-rule="evenodd" xlink:href="#path-1"></use>
                <path stroke="#000000" stroke-width="4" d="M50,98 C76.509668,98 98,76.509668 98,50 C98,23.490332 76.509668,2 50,2 C23.490332,2 2,23.490332 2,50 C2,76.509668 23.490332,98 50,98 Z"></path>
            </g>
            <path d="M26,26 L70,26 C74.418278,26 78,29.581722 78,34 L78,74 L26,74 L26,26 Z" id="Rectangle-6" fill="#D3E0EB"></path>
            <rect id="Rectangle-7" fill="#F5F9FF" x="54" y="54" width="16" height="12" rx="2"></rect>
            <path d="M40,54 L40,54 C43.3137085,54 46,56.6862915 46,60 L46,74 L34,74 L34,60 C34,56.6862915 36.6862915,54 40,54 Z" id="Rectangle-8" fill="#EDF3FD" opacity="0.400000006"></path>
            <path d="M26,26 L75.527864,26 C77.0429523,26 78.4280048,26.8560095 79.1055728,28.2111456 L86,42 L36.472136,42 C34.9570477,42 33.5719952,41.1439905 32.8944272,39.7888544 L26,26 Z" id="Rectangle-6-Copy" fill="#F5F9FF"></path>
        </g>
    </g>
</svg>

<svg width="100" height="100" viewBox="0 0 100 100" xmlns="http://www.w3.org/2000/svg" xmlns:xlink="http://www.w3.org/1999/xlink"><defs><path d="M50 100C22.386 100 0 77.614 0 50S22.386 0 50 0s50 22.386 50 50-22.386 50-50 50z" id="a"/></defs><g fill="none" fill-rule="evenodd"><g opacity=".197"><use fill="#000" xlink:href="#a"/><path stroke="#000" stroke-width="4" d="M50 98c26.51 0 48-21.49 48-48S76.51 2 50 2 2 23.49 2 50s21.49 48 48 48z"/></g><path d="M26 26h44a8 8 0 0 1 8 8v40H26V26z" fill="#D3E0EB"/><rect fill="#F5F9FF" x="54" y="54" width="16" height="12" rx="2"/><path d="M40 54a6 6 0 0 1 6 6v14H34V60a6 6 0 0 1 6-6z" fill="#EDF3FD" opacity=".4"/><path d="M26 26h49.528a4 4 0 0 1 3.578 2.211L86 42H36.472a4 4 0 0 1-3.578-2.211L26 26z" fill="#F5F9FF"/></g></svg>
